!!!SOCIAL_FUNCTION:	songs used in the treatment of the sick
!!!PDT:	1929
!!!OTL: No_60_You_Tied_Me_with_a_Black_Hair_Rope.krn
!!!REG: Southwest
!!!LANG: Non-Tone
!!!LING_GROUP: Uto-Aztecan
**kern
*staff1
=1-
*clefF4
*k[b-e-a-d-g-]
*M2/4
2A-\
=2
4e-\
4e-\
=3
4d-\
4d-\
=4
4B-\
8A-\
8r
=5
4e-\
4e-\
=6
4d-\
4A-\
=7
4A-\
4A-\
=8
4F\
8E-\
8r
=9
4A-\
4A-\
=10
4B-\
8B-\L
8F\J
=11||
*M3/4
2A-\
4F\
=12||
*M2/4
[2E-\
=13
4E-\]
4r
=14
4d-\
4B-\
=15
4e-\
4e-\
=16
4.d-\
8B-\
=17
2d-\
=18
4B-\
4A-\
=19
4B-\
8B-\L
8F\J
=20
2A-\
=21
8F\L
[8E-\J
8E-\]
8r
=22
4A-\
4B-\
=23
8A-\L
8F\J
8F\L
8E-\J
=24||
*M3/4
2A-\
4A-\
=25
2.A-\
==
*-
